X: 1482
T: Nihâl-i Gülşen-i Hüsn ü Ezelsin
C: Emin Ongan
O: Turkey
F: http://compmusic.upf.edu/node/140
N: suzinak-zirgule--sarki--yuruksemai--nihal-i_gulsen-i--emin_ongan
N: makam= suzinak-zirgule
N: form= sarki
N: usul= yuruksemai = 6/8
M: 6/8
L: 1/16
K: C _1/4B _7/8e _7/8A ^f
Q: 1/4=168
%%MIDI tuningsystem comma53
c2d2 f2e3/2d/ e4  | c2d2 e2dc BAGF  | \
w:  ARANAĞME  |   | 
G2A2 B2c2 d2e2  | 
w:   | 
gfga fed6  | c2d2 f2e3/2d/ e4  | c2d2 e2dc BAGF  | 
w:   |   |   | 
G2A2 B2c2 e2dc  | B2cB cAG6  | c2d2 f2e3/2d/ e4  | \
w:   |   |  ARANAĞME  | 
c2d2 e2dc BAGF  | 
w:   | 
G2A2 B2c2 d2e2  | gfga fed6  | c2d2 f2e3/2d/ e4  | \
w:   |   |   | 
c2d2 e2dc BAGF  | 
w:   | 
G2A2 B2c2 e2dc  | B2cB cAG6  | c2d4d4z2  | \
w:   |   |  Ni hâl_ i   | 
f2e2 d2c2 B4  | 
w:  gül *  şen_ i   | 
B4 c2B2 A2{B}AG  | G8-G2z2  | c2d4d4z2  | \
w:  hüsn_ ü  e zel  |  sin    |  A çıl mış   | 
d4 f2e2 d2c2  | e4 d2c2 f2ed  | 
w:  gon ca  i   |  bağ_ ı  e mel  | 
d4 c2B2 A2G2  | c2d4d4z2  | f2e2 d2c2 B4  | \
w:  sin   SAZ  |  Ni hâl_ i   |  gül *  şen_ i   | 
B4 c2B2 A2{B}AG  | G8-G2z2  | 
w:  hüsn_ ü  e zel  |  sin    | 
c2d4d4z2  | d4 f2e2 d2c2  | e4 d2c2 f2ed  | \
w:  A çıl mış   |  gon ca  i   |  bağ_ ı  e mel  | 
d8-d2z2  | c2d2 f2e3/2d/ e4  | 
w:  sin    |  Gü zel *  sin   | 
c4 e2d3/2c/ d4  | c2B2 c2_7/8d3cB2  | \
w:  sev di ğim   |  sen  *  *  pek   | 
c2BA AGG2 d4  | c2d2 f2e3/2d/ e4  | 
w:  gü zel *  *  *  sin    |  Gü zel *  sin   | 
c4 e2d3/2c/ d4  | c2B2 c2_7/8d3cB2  | \
w:  sev di ğim   |  sen  *  *  pek   | 
c2BA AGG2 g4  | =f2g4g6  | 
w:  gü zel *  *  *  sin   SAZ  |  Ü mîd_ i   | 
=f2g2 agg6  | =f2g2 =a2c'_b agf2  | g2=fe edd2 g4  | \
w:  rahm_ *  ı  *  lüt  |  fun *  *  dur   |  pe na *  *  *  hım    | 
=f2g4g6  | 
w:  Ü mîd_ i   | 
=f2g2 agg6  | =f2g2 =a2c'_b agf2  | g2=fe edd2 e4  | \
w:  rahm_ *  ı  *  lüt  |  fun *  *  dur   |  pe na *  *  *  hım    | 
d2e4e3/2d/ e4  | 
w:  Se ni  in  | 
d2_1/4e2 =f2gf _7/8edc2  | d2_1/4e2 =f2g2 =a2f2  | \
w:  cit *  me sin   |  hâr_ *  *  ı   | 
g2=fe edc2 e4  | 
w:  ni gâ *  *  *  hım    | 
d2e4e3/2d/ e4  | d2_1/4e2 =f2gf _7/8edc2  | \
w:  Se ni  in  |  cit *  me sin   | 
d2_1/4e2 =f2g2 =a2f2  | g2=fe edd6  | 
w:  hâr_ *  *  ı   |  ni gâ *  *  *  hım    | 
c2d2 f2e3/2d/ e4  | c4 e2d3/2c/ d4  | \
w:  Gü zel *  sin   |  sev di ğim   | 
c2B2 c2_7/8d3cB2  | c2BA AGG2 d4  | 
w:  sen  *  *  pek   |  gü zel *  *  *  sin    | 
c2d2 f2e3/2d/ e4  | c4 e2d3/2c/ d4  | \
w:  Gü zel *  sin   |  sev di ğim   | 
c2B2 c2_7/8d3cB2  | c2BA AGG6  | 
w:  sen  *  *  pek   |  gü zel *  *  *  sin    | 
|


